X:1
T:Summerford, 10.10.10.10
T:Summerford, 10.10.10.10
T:John T. Grimley, 1887
T:Public Domain Courtesy of the Cyber Hymnal™
C:John T. Grimley, 1887
Z:Public Domain
Z:Courtesy of the Cyber Hymnal™
%%score ( 1 2 ) ( 3 4 )
L:1/8
Q:1/4=115
M:4/4
K:Ab
V:1 treble 
V:2 treble 
V:3 bass 
V:4 bass 
V:1
 [CE]4 [CE]2 [CA]2 | [DG]4 [EA]4 | [FB]2 [Ec]2 [Dd]2 [EB]2 | [Ec]8 | [Ae]4 [Ad]2 [Ac]2 | B4 [Ac]4 | %6
 [GB]2 [EG]2 [=DG]2 [DF]2 | E8 | [CE]4 E2 [EA]2 | [EG]4 [EA]4 | [Fd]2 [Fc]2 F2 [FB]2 | [EG]8 | %12
 [Ee]4 [Ed]2 [Ec]2 | F4 B4 | E2 [EA]2 A2 [EG]2 | [EA]8 |] %16
V:2
 x8 | x8 | x8 | x8 | x8 | B4 x4 | x8 | (E2 B,2 C2 D2) | x4 E2 x2 | x8 | x4 F2 x2 | x8 | x8 | %13
 (F2 E2) (D2 =D2) | E2 (DF) x4 | x8 |] %16
V:3
 [A,,A,]4 [A,,A,]2 [A,,E,]2 | [B,,B,]4 [C,A,]4 | [D,A,]2 [E,G,]2 [F,A,]2 [G,B,]2 | A,8 | %4
 [CE]4 [B,E]2 [A,E]2 | [G,E]4 [A,E]4 | [B,E]2 B,2 [B,,B,]2 [B,,A,]2 | (G,4 A,2 B,2) | %8
 [A,,A,]4 [B,,G,]2 [C,A,]2 | [D,B,]4 [C,A,]4 | [B,,F,]2 [C,=A,]2 [D,B,]2 [B,,D]2 | B,8 | %12
 [C,A,]4 [B,,G,]2 [A,,A,]2 | ([D,A,]2 [C,=A,]2) (B,2 _A,2) | [E,G,]2 [C,A,]2 [D,B,]2 [E,D]2 | %15
 [A,,C]8 |] %16
V:4
 x8 | x8 | x8 | A,8 | x8 | x8 | x2 B,2 x4 | E,8 | x8 | x8 | x8 | E,4 D,4 | x8 | x4 B,,4 | x8 | %15
 x8 |] %16

